src/pos-icons/flag-plus.svg

<svg height="24" viewBox="0 0 24 24" width="24" xmlns="http://www.w3.org/2000/svg"><path d="m17 14h2v3h3v2h-3v3h-2v-3h-3v-2h3zm-4.6-9h5.6v7c-2.22 0-4.16 1.21-5.2 3h-1.8l-.4-2h-5.6v7h-2v-17h9z"/></svg>

<?xml version="1.0" encoding="UTF-8"?><!DOCTYPE svg PUBLIC "-//W3C//DTD SVG 1.1//EN" "http://www.w3.org/Graphics/SVG/1.1/DTD/svg11.dtd"><svg xmlns="http://www.w3.org/2000/svg" xmlns:xlink="http://www.w3.org/1999/xlink" version="1.1" id="mdi-flag-plus" width="24" height="24" viewBox="0 0 24 24"><path d="M17,14H19V17H22V19H19V22H17V19H14V17H17V14M12.4,5H18V12C15.78,12 13.84,13.21 12.8,15H11L10.6,13H5V20H3V3H12L12.4,5Z" /></svg>
